src/16/actions/delete-comment.svg

<svg xmlns="http://www.w3.org/2000/svg" width="16" height="16" version="1.1" viewBox="0 0 16 16">
 <defs>
  <style id="current-color-scheme" type="text/css">
   .ColorScheme-Text { color:#565656; } .ColorScheme-Highlight { color:#5294e2; }
  </style>
 </defs>
 <path style="fill:currentColor" class="ColorScheme-Text" d="M 2.96875 2 C 2.96875 2 1 2 1 4 L 1 10 C 1 11.108 1.892 12 3 12 L 8 12 L 10 15.003906 L 12 12 L 13 12 C 13 12 15 12 15 10 L 15 4 C 15 2 13 2 13 2 L 2.96875 2 z M 5 4 L 6.4140625 4 L 8 5.5859375 L 9.5859375 4 L 11 4 L 11 5.4140625 L 9.4140625 7 L 11 8.5859375 L 11 10 L 9.5859375 10 L 8 8.4140625 L 6.4140625 10 L 5 10 L 5 8.5859375 L 6.5859375 7 L 5 5.4140625 L 5 4 z"/>
</svg>

<svg xmlns="http://www.w3.org/2000/svg" width="16" height="16"><defs><style id="current-color-scheme" type="text/css"></style></defs><path d="M2.969 2S1 2 1 4v6c0 1.108.892 2 2 2h5l2 3.004L12 12h1s2 0 2-2V4c0-2-2-2-2-2H2.969zM5 4h1.414L8 5.586 9.586 4H11v1.414L9.414 7 11 8.586V10H9.586L8 8.414 6.414 10H5V8.586L6.586 7 5 5.414V4z" fill="currentColor" color="#565656"/></svg>
